img/play.svg

<svg width="64" height="64" viewBox="0 0 64 64" fill="none" xmlns="http://www.w3.org/2000/svg">
<path fill-rule="evenodd" clip-rule="evenodd" d="M31.9993 8.00008C18.7445 8.00008 7.99935 18.7452 7.99935 32.0001C7.99935 45.2549 18.7445 56.0001 31.9993 56.0001C45.2542 56.0001 55.9994 45.2549 55.9994 32.0001C55.9994 18.7452 45.2542 8.00008 31.9993 8.00008ZM2.66602 32.0001C2.66602 15.7997 15.799 2.66675 31.9993 2.66675C48.1997 2.66675 61.3327 15.7997 61.3327 32.0001C61.3327 48.2004 48.1997 61.3334 31.9993 61.3334C15.799 61.3334 2.66602 48.2004 2.66602 32.0001Z" fill="white"/>
<path fill-rule="evenodd" clip-rule="evenodd" d="M25.4084 18.9823C26.2755 18.5182 27.3276 18.5691 28.1459 19.1146L44.1459 29.7813C44.8877 30.2759 45.3333 31.1085 45.3333 32.0001C45.3333 32.8917 44.8877 33.7243 44.1459 34.2189L28.1459 44.8856C27.3276 45.4311 26.2755 45.4819 25.4084 45.0179C24.5413 44.5538 24 43.6502 24 42.6668V21.3334C24 20.35 24.5413 19.4463 25.4084 18.9823ZM29.3333 26.3161V37.684L37.8593 32.0001L29.3333 26.3161Z" fill="white"/>
</svg>

<svg width="64" height="64" fill="none" xmlns="http://www.w3.org/2000/svg"><path fill-rule="evenodd" clip-rule="evenodd" d="M32 8C18.743 8 8 18.745 8 32s10.744 24 24 24c13.254 0 24-10.745 24-24S45.253 8 32 8zM2.665 32c0-16.2 13.133-29.333 29.333-29.333S61.333 15.8 61.333 32 48.2 61.333 31.999 61.333C15.8 61.333 2.666 48.2 2.666 32z" fill="#fff"/><path fill-rule="evenodd" clip-rule="evenodd" d="M25.408 18.982a2.667 2.667 0 012.738.133l16 10.666a2.667 2.667 0 010 4.438l-16 10.667A2.667 2.667 0 0124 42.666V21.334c0-.983.541-1.887 1.408-2.35zm3.925 7.334v11.368L37.86 32l-8.526-5.684z" fill="#fff"/></svg>
